X:5820
T:Gan Ainm
R:slip jig
S:
H:
N:
D:Irish Dancing Tape (P. Acc)
Z:Adrian Scahill
M:9/8
L:1/8
K:G
D2E G2A GED|E2G A2B AGE|DEG Bdg b2a|1 g2e d2B AGE:|2 g2e d2B ABd||\
:e3 ege d2B|A3 A2B AGE|DEG Bdg b2a|1 g2e d2B ABd:|2 g2e d2B AGE||g2e dBA G3||
